X: 31
T:Lancashire Hornpipe. WI.031
M:C|
Q:180
S:Wm Irwin, 1838 MS, AGG's Transcription
R:Hornpipe
O:England
A:Lake District
Z:vmp.Chris Partington.2005
K:F
(3c/d/e/|f2c2 cdcB|A2F2 F2C2|DFBd cAGF|(3EFG C4 fg|!
afaf gege|fdfd e2g2|A=Bdf egBd|c2c2 c2:|!
|:AB|cAcA e2dc|dBFD B,2ga|bgbg afaf|(3efg cc c2c2|!
dBdB cAcA|Bbge f2c2|dfAc Bbec|f2f2 f2:|]
